X:19047
T:Xiraldilla (CT 281)
R:Xiraldilla
C:Tradicional
S:Msica Tradicional Asturiana, (C) Tello & Tito. Asturies, 2001.
S:http://pagina.de/MusTradAst <telloytito@asturies.org>
N:Xiraldilla, dictada por Rafael Martnez Arias, de veintisis aos, de Avils.
N:Vase la sealada con el nmero CT 272.
O:Avils
A:Asturies
Z:Cancioneru de Torner 281
M:2/4
L:1/8
Q:1/4=160
W:-Quin dir que estoi casada,
W:quien dir que tengo amor
W:Tengo un galn de mi gusto
W:que me roba el corazn;
W:tengo un galn de mi gusto
W:que el corazn me rob.
K:Gm
|d2 de|d2 cB|c2 c2|d2 de|d2 cB|c4|
|: B2 Bc|B2 A^F|G2 G2|B2 Bc|B2 A^F|G4 :||
